packages/kaspersky-hexa-ui-icons/src/iconsSVGs/24/RouterStatus.svg

<svg width="24" height="24" viewBox="0 0 24 24" fill="none" xmlns="http://www.w3.org/2000/svg">
<path d="M7.70711 8.70711C8.09763 8.31658 8.09763 7.68342 7.70711 7.29289C7.31658 6.90237 6.68342 6.90237 6.29289 7.29289L2.29289 11.2929C2.10536 11.4804 2 11.7348 2 12C2 12.2652 2.10536 12.5196 2.29289 12.7071L6.29289 16.7071C6.68342 17.0976 7.31658 17.0976 7.70711 16.7071C8.09763 16.3166 8.09763 15.6834 7.70711 15.2929L4.41421 12L7.70711 8.70711Z" fill="black"/>
<path d="M16.2929 8.70716C15.9024 8.31663 15.9024 7.68347 16.2929 7.29295C16.6834 6.90243 17.3166 6.90243 17.7071 7.29296L21.7071 11.293C21.8946 11.4806 22 11.7349 22 12.0001C22 12.2654 21.8946 12.5197 21.7071 12.7072L17.7071 16.7071C17.3166 17.0976 16.6834 17.0976 16.2929 16.7071C15.9024 16.3166 15.9024 15.6834 16.2929 15.2929L19.5858 12.0001L16.2929 8.70716Z" fill="black"/>
<path d="M13.5224 12C13.5224 12.7882 14.1613 13.4271 14.9495 13.4271C15.7376 13.4271 16.3765 12.7882 16.3765 12C16.3765 11.2119 15.7376 10.5729 14.9495 10.5729C14.1613 10.5729 13.5224 11.2119 13.5224 12Z" fill="black"/>
<path d="M9.05045 13.4271C8.2623 13.4271 7.62337 12.7882 7.62337 12C7.62337 11.2119 8.2623 10.5729 9.05045 10.5729C9.83861 10.5729 10.4775 11.2119 10.4775 12C10.4775 12.7882 9.83861 13.4271 9.05045 13.4271Z" fill="black"/>
</svg>

<svg xmlns="http://www.w3.org/2000/svg" width="24" height="24" fill="none" viewBox="0 0 24 24"><path fill="#000" fill-rule="evenodd" d="M7.7071 8.7071c.3905-.3905.3905-1.0237 0-1.4142s-1.0237-.3905-1.4142 0l-4 4a1 1 0 0 0 0 1.4142l4 4c.3905.3905 1.0237.3905 1.4142 0s.3905-1.0237 0-1.4142L4.4142 12zm8.5858 0c-.3905-.3905-.3905-1.0236 0-1.4142s1.0237-.3905 1.4142 0l4 4.0001a1.0003 1.0003 0 0 1 0 1.4142l-4 3.9999c-.3905.3905-1.0237.3905-1.4142 0s-.3905-1.0237 0-1.4142l3.2929-3.2928zm-7.2424 4.72c-.7882 0-1.4271-.6389-1.4271-1.4271s.6389-1.4271 1.427-1.4271 1.4271.639 1.4271 1.4271-.6389 1.4271-1.427 1.4271M13.5224 12c0 .7882.6389 1.4271 1.4271 1.4271s1.427-.6389 1.427-1.4271-.6389-1.4271-1.427-1.4271-1.4271.639-1.4271 1.4271"/></svg>
